X: 25213
T: Malfunction Junction
R: reel
M: 4/4
K: Adorian
|:e~A3 GAAG|AAB/c/d e~ A3|~G3B dGB/c/d|eede edB/c/d|
e~A3 GAAG|AAB/c/d e~ A3|~G3B dGB/c/d|eedB A2 z2:|
|:e~a3 fggf|edB/c/d e ~A3|GAAG ABde|~e2de edB/c/d|
e~a3 fggf|edB/c/d e ~A3|G3B dGB/c/d|eedB A2 z2:|

